public/avatar/shoe/109.svg

<svg xmlns:xlink="http://www.w3.org/1999/xlink" height="38.3" width="36.05" xmlns="http://www.w3.org/2000/svg"><use height="22.85" transform="translate(7.85 9.1)" width="25.1" xlink:href="#a"/><defs><g id="a" fill-rule="evenodd"><path d="M4.65 10.05v.05L7.8 8.75l.5-.05.35.3.45 1.35q.2.35-.25.65-6.55 4.2-13.8 5.55-5.65 1-8.65.15-2.8-1.35-2.25-3 .15-.45.65-.45l3.25-.2-.1-.35q0-.45.4-.75 1.7-1.4 5.05-.45.5.2.5.5l.05.2-.15.4.55.35Q-3.7 14 .85 11.7l-.15-.6q0-.4.45-.8.95-.7 2.75-.95l.55.2.2.5" fill="#303030" transform="translate(15.95 5.75)"/><path d="m4.1 9.95.45 1.1q.6.05 3.5-1.55l.15.55q-6.55 4.2-13.35 5.5-5.05.95-7.75.15-1.15-.45-1.7-1.4l2-.1 1.75-.35q-.35-1.4-.1-1.6.55-.45 2.4-.4l1.9.25-.3.65q-.2.55.9 1.1 1.75.95 8-1.75l-.25-1.35 2.4-.8" fill="#b5b5b5" transform="translate(15.95 5.75)"/><path d="m-8.55 11.85 1.9.25-.3.95L-9.4 16l-3.5-.3q-1.15-.45-1.7-1.4l2-.1 1.75-.35q-.35-1.4-.1-1.6.55-.45 2.4-.4m10.5.25-.25-1.35q0-.45 1.85-.75l-.45 2.85q-3.45 1.6-6.5 2.25l.7-1.3q4.4-1 4.65-1.7" fill="#fff" transform="translate(15.95 5.75)"/><path d="m4.1-1.2 3.1 6.65v.4l.1.45V7h-.1v.5l-.05.2v.1l-.05.05V8L5.85 9.05l-1.9 1.05-.55.2h-.1l-.1.05-.1.1-1.55.6-3 .9-5.25.8h-3.1l-2.65-.45-1.25-.35-.5-.35-.2-.3-.25-1.1v-.85l-.15-.3-.05-.25.05-.35.15-.4.45-.8 1.55-2L-7.1.1l1.95-1.25 1.95-.8 2.25-.3L1.9-2l2.2.8" transform="translate(15.95 5.75)"/><path d="m-8.35 4.75-2.2-.25q.1-.45 1.45-1.5.9-.7 3.25.35 2.3 1.15 1.9 1.45l-2.1 1.5q-.65-1-2.3-1.55" fill="#fff" transform="translate(15.95 5.75)"/><path d="M-7.8 5q.35-.95 2.5-1.3 1.65.9 1.35 1.1l-2.1 1.5q-.5-.75-1.75-1.3" fill="#ccc" transform="translate(15.95 5.75)"/><path d="M-10.95 7.1q-1.5-.55-2.2-.3.05-.45 1.45-1.5.9-.7 3.25.45Q-6.1 6.8-6.6 7.2l-2.05 1.5q-.7-.95-2.3-1.6" fill="#fff" transform="translate(15.95 5.75)"/><path d="M-11.35 7q2.25 0 2.8-1.3Q-6.1 6.8-6.6 7.2l-2.05 1.5q-.75-1.1-2.7-1.7" fill="#ccc" transform="translate(15.95 5.75)"/><path d="m-6.05-3.95.15-.2Q-5.2-5-1.6-5.5q5-.7 6.7.6.55.65 1.55 4.95.95 4.2.8 4.9l-.75.85q-1.3.7-4.4.8-3.5.15-5.25-.8l-.25-.2q-1.15-1.8-3.7-2.25l-2.95.15q-.5.25-.75-.2-.3-.45.15-.8l.5-.4q2.4-2 3.9-6.05" fill="#440202" transform="translate(15.95 5.75)"/><path d="M-.6-4.65Q3.15-4.9 4.3-4q.5.5 1.3 4.35l.7 4.4q-.85.7-4 .8-3.45.15-4.7-.8Q-3.65 2.8-5.85 2.3l-2.85.15Q-6.3.1-4.95-3.4q.65-.9 4.35-1.25" fill="#d80000" transform="translate(15.95 5.75)"/><path d="M6.3 4.75q-.7.55-3.4.8l-4.5-.35q3.45-.7 4.75-1.95Q4.85 1.8 5.1-1.7q1.45 5.5 1.2 6.45" fill="#8c1414" transform="translate(15.95 5.75)"/><path d="M-8.2-1.15q.3-1.25 2.5-1.35 4.55-.45 5.65 2.3v.4L-1.4 3q-.45.45-.8.1-2.5-1.8-5.9-1.55-.8.15-1-.25-.2-.25 0-.75l.9-1.7" fill="#440202" transform="translate(15.95 5.75)"/><path d="m-7.2-1.05 2.8-.25q2.05.35 3.05 1.4l-.7 1.75Q-4.4.3-6.55.3L-7.9.35l.7-1.4" fill="#fff" transform="translate(15.95 5.75)"/><path d="m-1.35.1-.7 1.75q-1.25-.8-3-1.35Q-3.4-.25-2.7-.8q.9.4 1.35.9" fill="#ccc" transform="translate(15.95 5.75)"/><path d="M-12.55 9.2q-1-.45-1.75-.6l.6-1q.4 0 2.5.85-.6.9-1.35.75" fill="#999" transform="translate(15.95 5.75)"/><path d="m.95-4.55.65.15q-1.65 1.85-2.75 2l-3.2-.15q-1.1-.1-.45-.75l1.35-.85 4.4-.4" fill="#f25700" transform="translate(15.95 5.75)"/><path d="M6.6 6.5q-.5 1.45-6 3.2-5.15 1.6-8.95 1.85Q.3 9.75 6.6 6.05v.45" fill="#606060" transform="translate(15.95 5.75)"/></g></defs></svg>

<?xml version="1.0" encoding="UTF-8" standalone="no"?>
<svg xmlns:xlink="http://www.w3.org/1999/xlink" height="38.3px" width="36.05px" xmlns="http://www.w3.org/2000/svg">
  <g transform="matrix(1.0, 0.0, 0.0, 1.0, 23.8, 14.85)">
    <use height="22.85" transform="matrix(1.0, 0.0, 0.0, 1.0, -15.95, -5.75)" width="25.1" xlink:href="#shape0"/>
  </g>
  <defs>
    <g id="shape0" transform="matrix(1.0, 0.0, 0.0, 1.0, 15.95, 5.75)">
      <path d="M4.65 10.05 L4.65 10.1 7.8 8.75 8.3 8.7 8.65 9.0 9.1 10.35 Q9.3 10.7 8.85 11.0 2.3 15.2 -4.95 16.55 -10.6 17.55 -13.6 16.7 -16.4 15.35 -15.85 13.7 -15.7 13.25 -15.2 13.25 L-11.95 13.05 -12.05 12.7 Q-12.05 12.25 -11.65 11.95 -9.95 10.55 -6.6 11.5 -6.1 11.7 -6.1 12.0 L-6.05 12.2 -6.2 12.6 -5.65 12.95 Q-3.7 14.0 0.85 11.7 L0.7 11.1 Q0.7 10.7 1.15 10.3 2.1 9.6 3.9 9.35 L4.45 9.55 4.65 10.05" fill="#303030" fill-rule="evenodd" stroke="none"/>
      <path d="M4.1 9.95 L4.55 11.05 Q5.15 11.1 8.05 9.5 L8.2 10.05 Q1.65 14.25 -5.15 15.55 -10.2 16.5 -12.9 15.7 -14.05 15.25 -14.6 14.3 L-12.6 14.2 -10.85 13.85 Q-11.2 12.45 -10.95 12.25 -10.4 11.8 -8.55 11.85 L-6.65 12.1 -6.95 12.75 Q-7.15 13.3 -6.05 13.85 -4.3 14.8 1.95 12.1 L1.7 10.75 4.1 9.95" fill="#b5b5b5" fill-rule="evenodd" stroke="none"/>
      <path d="M-8.55 11.85 L-6.65 12.1 -6.95 13.05 -9.4 16.0 -12.9 15.7 Q-14.05 15.25 -14.6 14.3 L-12.6 14.2 -10.85 13.85 Q-11.2 12.45 -10.95 12.25 -10.4 11.8 -8.55 11.85" fill="#ffffff" fill-rule="evenodd" stroke="none"/>
      <path d="M1.95 12.1 L1.7 10.75 Q1.7 10.3 3.55 10.0 L3.1 12.85 Q-0.35 14.45 -3.4 15.1 L-2.7 13.8 Q1.7 12.8 1.95 12.1" fill="#ffffff" fill-rule="evenodd" stroke="none"/>
      <path d="M4.1 -1.2 L7.2 5.45 7.2 5.85 7.3 6.3 7.3 7.0 7.2 7.0 7.2 7.5 7.15 7.7 7.15 7.8 7.1 7.85 7.1 8.0 5.85 9.05 3.95 10.1 3.4 10.3 3.3 10.3 3.2 10.35 3.1 10.45 1.55 11.05 -1.45 11.95 -6.7 12.75 -9.8 12.75 -12.45 12.3 -13.7 11.95 -14.2 11.6 -14.4 11.3 -14.65 10.2 -14.65 9.35 -14.8 9.05 -14.85 8.8 -14.8 8.45 -14.65 8.05 -14.2 7.25 -12.65 5.25 -7.1 0.1 -5.15 -1.15 -3.2 -1.95 -0.95 -2.25 1.9 -2.0 4.1 -1.2" fill="#000000" fill-rule="evenodd" stroke="none"/>
      <path d="M-8.35 4.75 L-10.55 4.5 Q-10.45 4.05 -9.1 3.0 -8.2 2.3 -5.85 3.35 -3.55 4.5 -3.95 4.8 L-6.05 6.3 Q-6.7 5.3 -8.35 4.75" fill="#ffffff" fill-rule="evenodd" stroke="none"/>
      <path d="M-7.8 5.0 Q-7.45 4.05 -5.3 3.7 -3.65 4.6 -3.95 4.8 L-6.05 6.3 Q-6.55 5.55 -7.8 5.0" fill="#cccccc" fill-rule="evenodd" stroke="none"/>
      <path d="M-10.95 7.1 Q-12.45 6.55 -13.15 6.8 -13.1 6.35 -11.7 5.3 -10.8 4.6 -8.45 5.75 -6.1 6.8 -6.6 7.2 L-8.65 8.7 Q-9.35 7.75 -10.95 7.1" fill="#ffffff" fill-rule="evenodd" stroke="none"/>
      <path d="M-11.35 7.0 Q-9.1 7.0 -8.55 5.7 -6.1 6.8 -6.6 7.2 L-8.65 8.7 Q-9.4 7.6 -11.35 7.0" fill="#cccccc" fill-rule="evenodd" stroke="none"/>
      <path d="M-6.05 -3.95 L-5.9 -4.15 Q-5.2 -5.0 -1.6 -5.5 3.4 -6.2 5.1 -4.9 5.65 -4.25 6.65 0.05 7.6 4.25 7.45 4.95 L6.7 5.8 Q5.4 6.5 2.3 6.6 -1.2 6.75 -2.95 5.8 L-3.2 5.6 Q-4.35 3.8 -6.9 3.35 L-9.85 3.5 Q-10.35 3.75 -10.6 3.3 -10.9 2.85 -10.45 2.5 L-9.95 2.1 Q-7.55 0.1 -6.05 -3.95" fill="#440202" fill-rule="evenodd" stroke="none"/>
      <path d="M-0.6 -4.65 Q3.15 -4.9 4.3 -4.0 4.8 -3.5 5.6 0.35 L6.3 4.75 Q5.45 5.45 2.3 5.55 -1.15 5.7 -2.4 4.75 -3.65 2.8 -5.85 2.3 L-8.7 2.45 Q-6.3 0.1 -4.95 -3.4 -4.3 -4.3 -0.6 -4.65" fill="#d80000" fill-rule="evenodd" stroke="none"/>
      <path d="M6.3 4.75 Q5.6 5.3 2.9 5.55 L-1.6 5.2 Q1.85 4.5 3.15 3.25 4.85 1.8 5.1 -1.7 6.55 3.8 6.3 4.75" fill="#8c1414" fill-rule="evenodd" stroke="none"/>
      <path d="M-8.2 -1.15 Q-7.9 -2.4 -5.7 -2.5 -1.15 -2.95 -0.05 -0.2 L-0.05 0.2 -1.4 3.0 Q-1.85 3.45 -2.2 3.1 -4.7 1.3 -8.1 1.55 -8.9 1.7 -9.1 1.3 -9.3 1.05 -9.1 0.55 L-8.2 -1.15" fill="#440202" fill-rule="evenodd" stroke="none"/>
      <path d="M-7.2 -1.05 L-4.4 -1.3 Q-2.35 -0.95 -1.35 0.1 L-2.05 1.85 Q-4.4 0.3 -6.55 0.3 L-7.9 0.35 -7.2 -1.05" fill="#ffffff" fill-rule="evenodd" stroke="none"/>
      <path d="M-1.35 0.1 L-2.05 1.85 Q-3.3 1.05 -5.05 0.5 -3.4 -0.25 -2.7 -0.8 -1.8 -0.4 -1.35 0.1" fill="#cccccc" fill-rule="evenodd" stroke="none"/>
      <path d="M-12.55 9.2 Q-13.55 8.75 -14.3 8.6 L-13.7 7.6 Q-13.3 7.6 -11.2 8.45 -11.8 9.35 -12.55 9.2" fill="#999999" fill-rule="evenodd" stroke="none"/>
      <path d="M0.95 -4.55 L1.6 -4.4 Q-0.05 -2.55 -1.15 -2.4 L-4.35 -2.55 Q-5.45 -2.65 -4.8 -3.3 L-3.45 -4.15 0.95 -4.55" fill="#f25700" fill-rule="evenodd" stroke="none"/>
      <path d="M6.6 6.5 Q6.1 7.95 0.6 9.7 -4.55 11.3 -8.35 11.55 0.3 9.75 6.6 6.05 L6.6 6.5" fill="#606060" fill-rule="evenodd" stroke="none"/>
    </g>
  </defs>
</svg>
